logo/sencha.svg

<?xml version="1.0" encoding="UTF-8" standalone="no"?>
<svg width="256px" height="388px" viewBox="0 0 256 388" version="1.1" xmlns="http://www.w3.org/2000/svg" xmlns:xlink="http://www.w3.org/1999/xlink">
    <defs>
        <linearGradient x1="17.6326981%" y1="22.2856515%" x2="0%" y2="77.7143485%" id="linearGradient-1">
            <stop stop-color="#AACE36" offset="0%"></stop>
            <stop stop-color="#2FA042" offset="100%"></stop>
        </linearGradient>
        <linearGradient x1="0%" y1="30.3118343%" x2="100%" y2="45.4269918%" id="linearGradient-2">
            <stop stop-color="#79A933" offset="0%"></stop>
            <stop stop-color="#70A333" offset="13%"></stop>
            <stop stop-color="#559332" offset="34%"></stop>
            <stop stop-color="#277B2F" offset="58%"></stop>
            <stop stop-color="#005F27" offset="86%"></stop>
            <stop stop-color="#005020" offset="100%"></stop>
        </linearGradient>
        <linearGradient x1="13.7968044%" y1="0%" x2="64.4963053%" y2="100%" id="linearGradient-3">
            <stop stop-color="#79AB35" offset="0%"></stop>
            <stop stop-color="#7CBA3D" offset="53%"></stop>
            <stop stop-color="#00AA4B" offset="100%"></stop>
        </linearGradient>
    </defs>
	<g>
		<path d="M252.875852,231.535407 L252.874667,231.536593 C245.692444,195.631407 223.780741,165.044148 193.686519,146.37037 C193.684148,146.369185 193.677037,146.364444 193.674667,146.363259 C193.665185,146.356148 193.652148,146.349037 193.641481,146.343111 C193.633185,146.337185 193.622519,146.330074 193.611852,146.324148 C193.603556,146.319407 193.6,146.317037 193.592889,146.312296 C190.808889,144.589037 187.953778,142.965333 185.035852,141.450667 L104.405333,101.034667 L104.404148,101.037037 L104.405333,101.034667 L104.406519,101.033481 L100.072296,98.8598519 C99.8186667,98.7377778 99.5674074,98.6133333 99.3161481,98.4865185 L99.314963,98.4865185 C99.2971852,98.477037 99.2805926,98.4687407 99.2628148,98.4604444 L99.2616296,98.4592593 C99.245037,98.450963 99.2284444,98.4426667 99.2118519,98.4343704 C99.2106667,98.4331852 99.2082963,98.432 99.2071111,98.432 C99.1905185,98.4237037 99.1751111,98.4154074 99.1597037,98.4082963 C99.1561481,98.4059259 99.1561481,98.4059259 99.1525926,98.4035556 C99.1371852,98.3964444 99.122963,98.3893333 99.1087407,98.3822222 C99.1051852,98.3798519 99.1016296,98.3774815 99.0980741,98.3762963 C99.085037,98.3691852 99.072,98.3632593 99.058963,98.3561481 C99.0542222,98.3537778 99.0494815,98.3514074 99.0435556,98.349037 C99.0328889,98.3431111 99.0222222,98.3371852 99.0115556,98.3324444 C99.0044444,98.3288889 98.9961481,98.3241481 98.9902222,98.3205926 C98.9831111,98.317037 98.9748148,98.3134815 98.9677037,98.3099259 C98.9558519,98.304 98.9463704,98.2992593 98.9357037,98.2933333 C98.9345185,98.2921481 98.9321481,98.290963 98.930963,98.290963 C90.5457778,93.9875556 83.4014815,87.6053333 78.176,79.8281481 C72.2512593,71.008 68.7952593,60.3922963 68.7952593,48.9671111 C68.7952593,27.7404444 80.7371852,9.3037037 98.2684444,0 L72.242963,13.2965926 C29.4103704,34.6725926 0,78.9191111 0,130.036148 L1.93185185,152.464593 L1.93303704,152.464593 C1.93303704,152.463407 1.93185185,152.461037 1.93185185,152.459852 C1.96503704,152.469333 1.99940741,152.48237 2.03259259,152.493037 C1.99940741,152.48237 1.96622222,152.474074 1.93303704,152.464593 C8.95051852,192.95763 34.637037,227.047111 69.8192593,245.532444 L69.8228148,245.534815 C69.8382222,245.541926 69.8524444,245.550222 69.8678519,245.558519 C69.8725926,245.560889 69.8737778,245.560889 69.8785185,245.563259 C69.8915556,245.57037 69.9081481,245.581037 69.9211852,245.586963 C69.9259259,245.590519 69.9282963,245.591704 69.9342222,245.594074 C69.9484444,245.60237 69.9602963,245.608296 69.9757037,245.615407 C69.9780741,245.617778 69.9828148,245.620148 69.9851852,245.621333 C70.0314074,245.646222 70.0740741,245.667556 70.1191111,245.692444 C70.1274074,245.696 70.1285926,245.697185 70.1357037,245.700741 C70.1463704,245.706667 70.1594074,245.712593 70.1700741,245.718519 C70.1783704,245.723259 70.1854815,245.726815 70.1937778,245.732741 C70.2044444,245.737481 70.2151111,245.743407 70.2257778,245.749333 C70.2364444,245.754074 70.2411852,245.756444 70.2506667,245.76237 C70.2613333,245.768296 70.2696296,245.771852 70.2802963,245.777778 C70.2933333,245.784889 70.3016296,245.78963 70.3134815,245.795556 C70.3205926,245.799111 70.3288889,245.803852 70.336,245.807407 C70.3537778,245.815704 70.3739259,245.82637 70.3928889,245.837037 L78.4782222,249.89037 C78.4687407,249.867852 78.4604444,249.844148 78.450963,249.820444 C78.4616296,249.845333 78.4711111,249.867852 78.4805926,249.891556 L78.4782222,249.89037 C78.4794074,249.891556 78.4794074,249.891556 78.4794074,249.892741 L88.0995556,254.712889 L155.356444,288.425481 C173.863111,297.398519 186.633481,316.361481 186.633481,338.312296 L186.633481,338.439111 C186.633481,338.456889 186.632296,338.475852 186.632296,338.49363 L186.632296,338.692741 C186.631111,338.709333 186.631111,338.725926 186.631111,338.742519 L186.631111,338.820741 C186.631111,338.831407 186.631111,338.843259 186.629926,338.851556 L186.629926,338.947556 C186.629926,338.955852 186.628741,338.965333 186.628741,338.97363 L186.628741,339.043556 C186.628741,339.054222 186.627556,339.066074 186.627556,339.07437 L186.627556,339.094519 C186.627556,339.132444 186.62637,339.169185 186.62637,339.207111 L186.62637,339.216593 C186.398815,353.513481 180.752593,366.494815 171.653926,376.196741 C167.48563,380.644741 162.590815,384.402963 157.159111,387.284148 L173.871407,378.748444 L183.185778,373.994667 C226.014815,352.612741 255.428741,308.363852 255.428741,257.243259 L252.875852,231.535407" fill="#7CBA3D"></path>
		<path d="M0,130.036148 C0,78.9191111 29.4103704,34.6725926 72.242963,13.2965926 L98.2684444,0 C80.7371852,9.3037037 68.7952593,27.7404444 68.7952593,48.9671111 C68.7952593,60.3922963 72.2512593,71.008 78.176,79.8281481 C69.3582222,101.897481 64.2263704,124.542815 62.4983704,147.077926 C51.3481481,152.713481 38.7674074,155.875556 25.517037,155.876741 C24.2441481,155.876741 22.9677037,155.847111 21.682963,155.787852 C14.834963,155.476148 8.22044444,154.331259 1.93185185,152.464593 L0,130.036148 L0,130.036148 Z M186.634667,338.368 L186.634667,338.312296 L186.634667,338.368 L186.634667,338.368 Z M186.634667,338.42963 L186.634667,338.382222 L186.634667,338.42963 L186.634667,338.42963 Z M186.633481,338.49363 C186.633481,338.475852 186.634667,338.456889 186.634667,338.439111 C186.634667,338.458074 186.633481,338.474667 186.633481,338.49363 L186.633481,338.49363 Z M186.633481,338.551704 L186.633481,338.507852 L186.633481,338.551704 L186.633481,338.551704 Z M186.633481,338.616889 L186.633481,338.563556 L186.633481,338.616889 L186.633481,338.616889 Z M186.633481,338.673778 L186.633481,338.633481 L186.633481,338.673778 L186.633481,338.673778 Z M186.632296,338.742519 C186.632296,338.725926 186.632296,338.709333 186.633481,338.692741 C186.632296,338.708148 186.632296,338.725926 186.632296,338.742519 L186.632296,338.742519 Z M186.632296,338.794667 L186.632296,338.763852 L186.632296,338.794667 L186.632296,338.794667 Z M186.631111,338.852741 C186.632296,338.843259 186.632296,338.831407 186.632296,338.821926 C186.632296,338.831407 186.632296,338.842074 186.631111,338.852741 L186.631111,338.852741 Z M186.631111,338.920296 L186.631111,338.893037 L186.631111,338.920296 L186.631111,338.920296 Z M186.629926,338.974815 C186.629926,338.965333 186.631111,338.955852 186.631111,338.948741 C186.631111,338.957037 186.629926,338.965333 186.629926,338.974815 L186.629926,338.974815 Z M186.629926,339.044741 L186.629926,339.018667 L186.629926,339.044741 L186.629926,339.044741 Z M186.628741,339.095704 L186.628741,339.075556 L186.628741,339.095704 L186.628741,339.095704 Z M186.627556,339.216593 L186.627556,339.207111 L186.627556,339.216593 L186.627556,339.216593 Z" fill="#C5D83E"></path>
		<path d="M78.4805926,249.891556 L70.3928889,245.837037 C70.3739259,245.82637 70.3537778,245.815704 70.336,245.807407 C70.3288889,245.803852 70.3205926,245.799111 70.3134815,245.795556 C70.3016296,245.78963 70.2933333,245.784889 70.2802963,245.777778 C70.2696296,245.771852 70.2613333,245.768296 70.2506667,245.76237 C70.2411852,245.756444 70.2364444,245.754074 70.2257778,245.749333 C70.2151111,245.743407 70.2044444,245.737481 70.1937778,245.732741 C70.1854815,245.726815 70.1783704,245.723259 70.1700741,245.718519 C70.1594074,245.712593 70.1463704,245.706667 70.1357037,245.700741 C70.1285926,245.697185 70.1274074,245.696 70.1191111,245.692444 C70.0740741,245.667556 70.0314074,245.646222 69.9851852,245.621333 C69.9828148,245.620148 69.9780741,245.617778 69.9757037,245.615407 C69.9602963,245.608296 69.9484444,245.60237 69.9342222,245.594074 C69.9282963,245.591704 69.9259259,245.590519 69.9211852,245.586963 C69.9081481,245.581037 69.8915556,245.57037 69.8785185,245.563259 C69.8737778,245.560889 69.8725926,245.560889 69.8678519,245.558519 C69.8524444,245.550222 69.8382222,245.541926 69.8228148,245.534815 L69.8192593,245.532444 C34.6358519,227.045926 8.94814815,192.955259 1.93185185,152.459852 C8.22044444,154.326519 14.834963,155.471407 21.682963,155.783111 C22.9677037,155.84237 24.2441481,155.872 25.517037,155.872 C38.7674074,155.870815 51.3481481,152.708741 62.4983704,147.073185 C59.7807407,182.520889 65.4791111,217.690074 78.4805926,249.891556" fill="url(#linearGradient-1)"></path>
		<path d="M104.406519,101.033481 L100.072296,98.8598519 C99.8186667,98.7377778 99.5674074,98.6133333 99.3161481,98.4865185 L99.314963,98.4865185 C99.2971852,98.477037 99.2805926,98.4687407 99.2628148,98.4604444 L99.2616296,98.4592593 C99.245037,98.450963 99.2284444,98.4426667 99.2118519,98.4343704 C99.2106667,98.4331852 99.2082963,98.432 99.2071111,98.432 C99.1905185,98.4237037 99.1751111,98.4154074 99.1597037,98.4082963 C99.1561481,98.4059259 99.1561481,98.4059259 99.1525926,98.4035556 C99.1371852,98.3964444 99.122963,98.3893333 99.1087407,98.3822222 C99.1051852,98.3798519 99.1016296,98.3774815 99.0980741,98.3762963 C99.085037,98.3691852 99.072,98.3632593 99.058963,98.3561481 C99.0542222,98.3537778 99.0494815,98.3514074 99.0435556,98.349037 C99.0328889,98.3431111 99.0222222,98.3371852 99.0115556,98.3324444 C99.0044444,98.3288889 98.9961481,98.3241481 98.9902222,98.3205926 C98.9831111,98.317037 98.9748148,98.3134815 98.9677037,98.3099259 C98.9558519,98.304 98.9463704,98.2992593 98.9357037,98.2933333 C98.9345185,98.2921481 98.9321481,98.290963 98.930963,98.290963 C90.5457778,93.9875556 83.4014815,87.6053333 78.176,79.8281481 C69.3582222,101.897481 64.2263704,124.542815 62.4983704,147.077926 C77.44,139.528296 89.8204444,127.540148 97.8346667,112.768 L104.406519,101.033481 L104.406519,101.033481 Z M252.875852,231.535407 C222.192593,251.830519 185.499259,263.594667 146.299259,263.594667 C143.313778,263.594667 140.314074,263.527111 137.302519,263.388444 C120.193185,262.603852 103.710815,259.605333 88.0995556,254.712889 L155.356444,288.425481 C173.863111,297.398519 186.633481,316.361481 186.633481,338.312296 L186.633481,338.439111 C186.633481,338.456889 186.632296,338.475852 186.632296,338.49363 L186.632296,338.692741 C186.631111,338.709333 186.631111,338.725926 186.631111,338.742519 L186.631111,338.820741 C186.631111,338.831407 186.631111,338.843259 186.629926,338.851556 L186.629926,338.947556 C186.629926,338.955852 186.628741,338.965333 186.628741,338.97363 L186.628741,339.043556 C186.628741,339.054222 186.627556,339.066074 186.627556,339.07437 L186.627556,339.094519 C186.627556,339.132444 186.62637,339.169185 186.62637,339.207111 L186.62637,339.216593 C186.398815,353.513481 180.752593,366.494815 171.653926,376.196741 C167.48563,380.644741 162.590815,384.402963 157.159111,387.284148 L173.871407,378.748444 L183.185778,373.994667 C226.014815,352.612741 255.428741,308.363852 255.428741,257.243259 L252.875852,231.535407 L252.875852,231.535407 Z" fill="url(#linearGradient-2)"></path>
		<path d="M146.299259,263.594667 C143.313778,263.594667 140.314074,263.527111 137.302519,263.388444 C120.193185,262.603852 103.710815,259.605333 88.0995556,254.712889 L78.4794074,249.892741 C65.4779259,217.691259 59.7795556,182.522074 62.4971852,147.079111 C77.4388148,139.529481 89.8192593,127.541333 97.8334815,112.769185 L104.405333,101.034667 L185.035852,141.450667 C187.953778,142.965333 190.808889,144.589037 193.592889,146.312296 C193.6,146.317037 193.603556,146.319407 193.611852,146.324148 C193.622519,146.330074 193.633185,146.337185 193.641481,146.343111 C193.652148,146.349037 193.665185,146.356148 193.674667,146.363259 C193.677037,146.364444 193.684148,146.369185 193.686519,146.37037 C223.780741,165.044148 245.692444,195.631407 252.874667,231.536593 C222.193778,251.830519 185.500444,263.594667 146.299259,263.594667" fill="url(#linearGradient-3)"></path>
	</g>
</svg>

<svg viewBox="0 0 256 388" xmlns="http://www.w3.org/2000/svg"><defs><linearGradient id="a" x1="17.632%" x2="0%" y1="22.285%" y2="77.714%"><stop offset="0%" stop-color="#AACE36"/><stop offset="100%" stop-color="#2FA042"/></linearGradient><linearGradient id="b" x1="0%" x2="100%" y1="30.311%" y2="45.426%"><stop offset="0%" stop-color="#79A933"/><stop offset="13%" stop-color="#70A333"/><stop offset="34%" stop-color="#559332"/><stop offset="58%" stop-color="#277B2F"/><stop offset="86%" stop-color="#005F27"/><stop offset="100%" stop-color="#005020"/></linearGradient><linearGradient id="c" x1="13.796%" x2="64.496%" y1="0%" y2="100%"><stop offset="0%" stop-color="#79AB35"/><stop offset="53%" stop-color="#7CBA3D"/><stop offset="100%" stop-color="#00AA4B"/></linearGradient></defs><path fill="#7CBA3D" d="M252.87 231.53l-.01 0c-7.19-35.91-29.1-66.5-59.19-85.17 -.01-.01-.01-.01-.02-.01 -.01-.01-.03-.02-.04-.03 -.01-.01-.02-.02-.03-.02 -.01-.01-.02-.01-.02-.02 -2.79-1.73-5.64-3.35-8.56-4.87l-80.64-40.416 -.01 0 0-.01 0-.01 -4.34-2.18c-.26-.13-.51-.25-.76-.38h-.01c-.02-.01-.04-.02-.06-.03l-.01-.01c-.02-.01-.04-.02-.05-.03 -.01-.01-.01-.01-.01-.01 -.02-.01-.04-.02-.05-.03 -.01-.01-.01-.01-.01-.01 -.02-.01-.03-.02-.05-.03 -.01-.01-.01-.01-.02-.01 -.02-.01-.03-.02-.04-.03 -.01-.01-.01-.01-.02-.01 -.02-.01-.03-.02-.04-.02 -.01-.01-.02-.01-.03-.02 -.01-.01-.02-.01-.03-.02 -.02-.01-.03-.02-.04-.02 -.01-.01-.01-.01-.01-.01 -8.39-4.31-15.53-10.69-20.76-18.47 -5.93-8.83-9.39-19.44-9.39-30.87 0-21.23 11.94-39.67 29.47-48.97L72.06 13.1C29.22 34.47-.19 78.72-.19 129.83l1.93 22.42h0c0-.01-.01-.01-.01-.01 .03 0 .06.02.1.03 -.04-.02-.07-.02-.1-.03 7.01 40.49 32.7 74.58 67.88 93.06l0 0c.01 0 .02.01.04.02 0 0 0 0 .01 0s.02.01.04.02c0 0 0 0 .01 0s.02.01.04.02c0 0 0 0 0 0 .04.02.08.04.13.07 0 0 0 0 .01 0s.02.01.03.01c0 0 .01 0 .02.01 .01 0 .02.01.03.01 .01 0 .01 0 .02.01 .01 0 .01 0 .02.01 .01 0 .02.01.03.01 0 0 .01 0 .02.01 .01 0 .03.01.05.02l8.08 4.05c-.01-.03-.02-.05-.03-.07 .01.02.02.04.02.07l-.01-.01s0 0 0 0l9.62 4.82 67.25 33.71c18.5 8.97 31.27 27.93 31.27 49.88v.12c0 .01-.01.03-.01.05v.19c-.01.01-.01.03-.01.04v.07c0 .01 0 .02-.01.03v.09s-.01.01-.01.02v.06c0 .01-.01.02-.01.03v.02c0 .03-.01.07-.01.11v0c-.23 14.29-5.88 27.27-14.98 36.98 -4.17 4.44-9.07 8.2-14.5 11.08l16.71-8.54 9.31-4.76c42.82-21.39 72.24-65.64 72.24-116.76l-2.56-25.71"/><path fill="#C5D83E" d="M0 130.03C0 78.91 29.41 34.66 72.24 13.29L98.26-.01c-17.54 9.3-29.48 27.74-29.48 48.96 0 11.42 3.45 22.04 9.38 30.86 -8.82 22.06-13.95 44.71-15.68 67.24 -11.16 5.63-23.74 8.79-36.99 8.79 -1.28 0-2.55-.03-3.84-.09 -6.85-.32-13.47-1.46-19.76-3.33l-1.94-22.43v0Zm186.63 208.33v-.06 .05 0Zm0 .06v-.05 .04 0Zm-.01.06c0-.02 0-.04 0-.06 0 .01-.01.03-.01.05v0Zm0 .05v-.05 .04 0Zm0 .06v-.06 .05 0Zm0 .05v-.05 .04 0Zm-.01.06c0-.02 0-.04 0-.05 -.01.01-.01.03-.01.04v0Zm0 .05v-.04 .03 0Zm-.01.05c0-.01 0-.03 0-.04 0 0 0 .02-.01.03v0Zm0 .06v-.03 .02 0Zm-.01.05c0-.01 0-.02 0-.03 0 0-.01.01-.01.02v0Zm0 .06v-.03 .02 0Zm-.01.05v-.03 .02 0Zm-.01.12v-.01 0 0Z"/><path fill="url(#a)" d="M78.48 249.89l-8.09-4.06c-.02-.02-.04-.03-.06-.03 -.01-.01-.02-.01-.03-.02 -.02-.01-.03-.02-.04-.02 -.02-.01-.02-.01-.03-.02 -.01-.01-.02-.01-.03-.02 -.02-.01-.03-.02-.04-.02 -.01-.01-.02-.01-.03-.02 -.02-.01-.03-.02-.04-.02 -.01-.01-.01-.01-.02-.01 -.05-.03-.09-.05-.14-.08 -.01-.01-.01-.01-.01-.01 -.02-.01-.03-.02-.05-.03 -.01-.01-.01-.01-.02-.01 -.02-.01-.03-.02-.05-.03 -.01-.01-.01-.01-.02-.01 -.02-.01-.03-.02-.05-.03l-.01-.01c-35.19-18.49-60.88-52.58-67.89-93.08 6.28 1.86 12.9 3.01 19.75 3.32 1.28.05 2.56.08 3.83.08 13.25-.01 25.83-3.17 36.98-8.8 -2.72 35.44 2.98 70.61 15.98 102.81"/><path fill="url(#b)" d="M104.4 101.03l-4.34-2.18c-.26-.13-.51-.25-.76-.38h-.01c-.02-.01-.04-.02-.06-.03l-.01-.01c-.02-.01-.04-.02-.05-.03 -.01-.01-.01-.01-.01-.01 -.02-.01-.04-.02-.05-.03 -.01-.01-.01-.01-.01-.01 -.02-.01-.03-.02-.05-.03 -.01-.01-.01-.01-.02-.01 -.02-.01-.03-.02-.04-.03 -.01-.01-.01-.01-.02-.01 -.02-.01-.03-.02-.04-.02 -.01-.01-.02-.01-.03-.02 -.01-.01-.02-.01-.03-.02 -.02-.01-.03-.02-.04-.02 -.01-.01-.01-.01-.01-.01 -8.39-4.31-15.53-10.69-20.76-18.47 -8.82 22.06-13.95 44.71-15.68 67.24 14.94-7.55 27.32-19.54 35.33-34.31l6.57-11.74v0Zm148.46 130.5c-30.69 20.29-67.38 32.05-106.58 32.05 -2.99 0-5.99-.07-9-.21 -17.11-.79-33.6-3.79-49.21-8.68l67.25 33.71c18.5 8.97 31.27 27.93 31.27 49.88v.12c0 .01-.01.03-.01.05v.19c-.01.01-.01.03-.01.04v.07c0 .01 0 .02-.01.03v.09s-.01.01-.01.02v.06c0 .01-.01.02-.01.03v.02c0 .03-.01.07-.01.11v0c-.23 14.29-5.88 27.27-14.98 36.98 -4.17 4.44-9.07 8.2-14.5 11.08l16.71-8.54 9.31-4.76c42.82-21.39 72.24-65.64 72.24-116.76l-2.56-25.71v0Z"/><path fill="url(#c)" d="M146.29 263.59c-2.99 0-5.99-.07-9-.21 -17.11-.79-33.6-3.79-49.21-8.68l-9.63-4.83c-13.01-32.21-18.7-67.38-15.99-102.82 14.94-7.55 27.32-19.54 35.33-34.31l6.57-11.74 80.63 40.416c2.91 1.51 5.77 3.13 8.55 4.86 0 0 .01 0 .01.01 .01 0 .02.01.02.01 .01 0 .02.01.03.02 0 0 0 0 .01 0 30.09 18.67 52 49.26 59.18 85.16 -30.69 20.29-67.38 32.05-106.58 32.05"/></svg>
